images/header icon/basket.svg

<svg width="34" height="31" viewBox="0 0 34 31" fill="none" xmlns="http://www.w3.org/2000/svg">
<g clip-path="url(#clip0)">
<path fill-rule="evenodd" clip-rule="evenodd" d="M8.42963 6.2142L11.5266 21.7802L28.3366 20.7912L31.7276 6.0342H20.0506L8.42963 6.2142ZM11.0356 23.0172C10.7506 23.0172 10.5006 22.8152 10.4446 22.5312L7.13863 5.9112L4.56963 3.2072H0.603634C0.270634 3.2072 -0.000366211 2.9372 -0.000366211 2.6042C-0.000366211 2.2702 0.270634 2.0002 0.603634 2.0002H4.82863C4.99463 2.0002 5.15263 2.0682 5.26663 2.1882L7.95163 5.0142L20.0416 4.8272H32.4856C32.6696 4.8272 32.8436 4.9112 32.9576 5.0552C33.0726 5.1992 33.1156 5.3872 33.0736 5.5662L29.4116 21.5022C29.3516 21.7632 29.1266 21.9542 28.8596 21.9692L11.0726 23.0162C11.0606 23.0172 11.0486 23.0172 11.0356 23.0172Z" fill="#212a2f"/>
<path fill-rule="evenodd" clip-rule="evenodd" d="M29.4276 25.4718H11.1166C10.7836 25.4718 10.5126 25.2008 10.5126 24.8678V22.4128C10.5126 22.0798 10.7836 21.8098 11.1166 21.8098C11.4496 21.8098 11.7206 22.0798 11.7206 22.4128V24.2638H29.4276C29.7606 24.2638 30.0316 24.5348 30.0316 24.8678C30.0316 25.2008 29.7606 25.4718 29.4276 25.4718Z" fill="#231F20"/>
<path fill-rule="evenodd" clip-rule="evenodd" d="M14.417 28.2785C14.417 29.5785 13.363 30.6325 12.063 30.6325C10.763 30.6325 9.70898 29.5785 9.70898 28.2785C9.70898 26.9785 10.763 25.9245 12.063 25.9245C13.363 25.9245 14.417 26.9785 14.417 28.2785Z" fill="#231F20"/>
<path fill-rule="evenodd" clip-rule="evenodd" d="M30.2723 28.2785C30.2723 29.5785 29.2183 30.6325 27.9183 30.6325C26.6183 30.6325 25.5643 29.5785 25.5643 28.2785C25.5643 26.9785 26.6183 25.9245 27.9183 25.9245C29.2183 25.9245 30.2723 26.9785 30.2723 28.2785Z" fill="#231F20"/>
</g>
<defs>
<clipPath id="clip0">
<rect width="34" height="31" fill="white"/>
</clipPath>
</defs>
</svg>

<svg width="34" height="31" fill="none" xmlns="http://www.w3.org/2000/svg"><g clip-path="url(#clip0)" fill-rule="evenodd" clip-rule="evenodd"><path d="M8.43 6.214l3.097 15.566 16.81-.989 3.39-14.757H20.052l-11.621.18zm2.606 16.803a.603.603 0 01-.591-.486L7.139 5.911l-2.57-2.704H.605A.604.604 0 11.604 2h4.225c.166 0 .324.068.438.188l2.685 2.826 12.09-.187h12.444a.602.602 0 01.588.74l-3.662 15.935a.602.602 0 01-.552.467l-17.787 1.047-.037.001z" fill="#212a2f"/><path d="M29.428 25.472H11.117a.605.605 0 01-.604-.604v-2.455a.604.604 0 011.208 0v1.85h17.707a.605.605 0 010 1.209zm-15.011 2.807a2.354 2.354 0 11-4.708 0 2.354 2.354 0 014.708 0zm15.855 0a2.354 2.354 0 11-4.708 0 2.354 2.354 0 014.708 0z" fill="#231F20"/></g><defs><clipPath id="clip0"><path fill="#fff" d="M0 0h34v31H0z"/></clipPath></defs></svg>
